dist/svgs/unicons/line/boombox.svg

<svg xmlns="http://www.w3.org/2000/svg" viewBox="0 0 24 24"><path d="M17 2H7a3 3 0 00-3 3v14a3 3 0 003 3h10a3 3 0 003-3V5a3 3 0 00-3-3zm1 17a1 1 0 01-1 1H7a1 1 0 01-1-1V5a1 1 0 011-1h10a1 1 0 011 1zm-3.62-8.2A3 3 0 0015 9a3 3 0 00-6 0 3 3 0 00.62 1.8 4 4 0 104.76 0zM12 8a1 1 0 11-1 1 1 1 0 011-1zm0 8a2 2 0 112-2 2 2 0 01-2 2z"/></svg>

<svg xmlns="http://www.w3.org/2000/svg" viewBox="0 0 24 24"><path d="M17,2H7A3,3,0,0,0,4,5V19a3,3,0,0,0,3,3H17a3,3,0,0,0,3-3V5A3,3,0,0,0,17,2Zm1,17a1,1,0,0,1-1,1H7a1,1,0,0,1-1-1V5A1,1,0,0,1,7,4H17a1,1,0,0,1,1,1Zm-3.62-8.2A3,3,0,0,0,15,9,3,3,0,0,0,9,9a3,3,0,0,0,.62,1.8,4,4,0,1,0,4.76,0ZM12,8a1,1,0,1,1-1,1A1,1,0,0,1,12,8Zm0,8a2,2,0,1,1,2-2A2,2,0,0,1,12,16Z"/></svg>
